X:37
M:C
L:1/8
K:A
c|:AF F/F/F AEEc|AF F/F/F c2 Bc|AF F/F/F AEEA|1 FGAB c2 Bc:|2
EAfA cBBf|e<Afe c2 cb|agfa eacA|FGAB cABc||

